X: 12270
T: Fairmount, The
R: jig
M: 6/8
K: Dmajor
|:Bde dBA|GAG E2D|CDE cAB|GdB AGA|
Bde dBA|GAG E2D|CDE cAB|1 GED EGA:|2 GED Eed||
|:=cge fed|cde aed|=cge fed|cAG EAB|
=cge fed|cde c'ab|1 gbe eag|fef gdB:|2 gba fed|egf dBA||

